svgs/sharp-light/video-plus.svg

<svg xmlns="http://www.w3.org/2000/svg" viewBox="0 0 576 512"><!--! Font Awesome Pro 6.6.0 by @fontawesome - https://fontawesome.com License - https://fontawesome.com/license (Commercial License) Copyright 2024 Fonticons, Inc. --><path d="M352 96l0 320L32 416 32 96l320 0zM32 64L0 64 0 96 0 416l0 32 32 0 320 0 32 0 0-32 0-64 0-192 0-64 0-32-32 0L32 64zM416 332.2l0 35.8 128 64 32 16 0-35.8 0-312.4L576 64 544 80 416 144l0 35.8 128-64 0 280.4-128-64zM208 176l0-16-32 0 0 16 0 64-64 0-16 0 0 32 16 0 64 0 0 64 0 16 32 0 0-16 0-64 64 0 16 0 0-32-16 0-64 0 0-64z"/></svg>

<svg xmlns="http://www.w3.org/2000/svg" viewBox="0 0 576 512"><!--! Font Awesome Pro 6.4.2 by @fontawesome - https://fontawesome.com License - https://fontawesome.com/license (Commercial License) Copyright 2023 Fonticons, Inc. --><path d="M352 96V416H32V96H352zM32 64H0V96 416v32H32 352h32V416 352 160 96 64H352 32zM416 332.2V368l128 64 32 16V412.2 99.8 64L544 80 416 144v35.8l128-64V396.2l-128-64zM208 176V160H176v16 64H112 96v32h16 64v64 16h32V336 272h64 16V240H272 208V176z"/></svg>
